resources/icons/20px/shorten-text.svg

<svg xmlns="http://www.w3.org/2000/svg" viewBox="0 0 20 20">
  <path d="M.833 13h8.334c.458 0 .833-.45.833-1s-.375-1-.833-1H.833C.375 11 0 11.45 0 12s.375 1 .833 1M1 8h18c.55 0 1-.45 1-1s-.45-1-1-1H1c-.55 0-1 .45-1 1s.45 1 1 1m15 6c0-.28-.11-.53-.29-.71l-.3-.29H19c.55 0 1-.45 1-1s-.45-1-1-1h-3.59l.29-.29c.19-.18.3-.43.3-.71a1.003 1.003 0 0 0-1.71-.71l-2 2c-.18.19-.29.44-.29.71 0 .28.11.53.29.71l2 2c.18.18.43.29.71.29.55.01 1-.44 1-1"/>
</svg>

<svg width="20" height="20" viewBox="0 0 20 20" fill="none" xmlns="http://www.w3.org/2000/svg">
<path fill-rule="evenodd" clip-rule="evenodd" d="M0.833333 13H9.16667C9.625 13 10 12.55 10 12C10 11.45 9.625 11 9.16667 11H0.833333C0.375 11 0 11.45 0 12C0 12.55 0.375 13 0.833333 13ZM1 8H19C19.55 8 20 7.55 20 7C20 6.45 19.55 6 19 6H1C0.45 6 0 6.45 0 7C0 7.55 0.45 8 1 8ZM16 14C16 13.72 15.89 13.47 15.71 13.29L15.41 13H19C19.55 13 20 12.55 20 12C20 11.45 19.55 11 19 11H15.41L15.7 10.71C15.89 10.53 16 10.28 16 10C16 9.45 15.55 9 15 9C14.72 9 14.47 9.11 14.29 9.29L12.29 11.29C12.11 11.48 12 11.73 12 12C12 12.28 12.11 12.53 12.29 12.71L14.29 14.71C14.47 14.89 14.72 15 15 15C15.55 15.01 16 14.56 16 14Z" fill="#111418"/>
</svg>
